src/assets/images/memory.svg

<svg fill="none" height="17" viewBox="0 0 20 17" width="20" xmlns="http://www.w3.org/2000/svg"><path d="m18.949 5.67388c.3426-.09561.5736-.41428.5736-.76481v-1.19502c0-1.76065-1.4261-3.186706-3.1867-3.186706h-12.74685c-1.76065 0-3.186706 1.426056-3.186706 3.186706v1.19502c0 .35053.231036.66124.56564.76481.103566.03186 1.027716.34257 1.027716 1.22688s-.91618 1.19501-1.019749 1.22688c-.342571.0956-.573607.41427-.573607.76481v5.17835c0 1.3146 1.075516 2.3901 2.390026 2.3901h14.34023c1.3145 0 2.39-1.0755 2.39-2.3901v-5.17835c0-.35054-.231-.66124-.5657-.76481-.1035-.03187-1.0277-.34257-1.0277-1.22688s.9162-1.19502 1.0198-1.22688zm-16.9533 8.39692v-.7966h2.39003v1.5933h-1.59336c-.43817 0-.79667-.3585-.79667-.7967zm11.9501.7967h-1.5933v-1.5933h1.5933zm-3.1867 0h-1.59331v-1.5933h1.59331zm-3.18667 0h-1.59335v-1.5933h1.59335zm9.56017 0h-1.5934v-1.5933h2.39v.7966c0 .4382-.3585.7967-.7966.7967zm.7966-10.48424c-.7329.39834-1.5933 1.20298-1.5933 2.5175 0 1.31451.8604 2.11916 1.5933 2.5175v2.26254h-15.9335v-2.26254c.73294-.39834 1.59335-1.20299 1.59335-2.5175 0-1.31452-.86041-2.11916-1.59335-2.5175v-.66921c0-.87634.71701-1.59335 1.59335-1.59335h12.74685c.8763 0 1.5933.71701 1.5933 1.59335zm-7.1701.12747v4.78006c0 .43817-.3585.79671-.79663.79671-.43818 0-.79668-.35854-.79668-.79671v-4.78006c0-.43817.3585-.79668.79668-.79668.43813 0 .79663.35851.79663.79668zm-3.98334 0v4.78006c0 .43817-.35851.79671-.79668.79671s-.79668-.35854-.79668-.79671v-4.78006c0-.43817.35851-.79668.79668-.79668s.79668.35851.79668.79668zm7.96674 0v4.78006c0 .43817-.3585.79671-.7967.79671-.4381 0-.7966-.35854-.7966-.79671v-4.78006c0-.43817.3585-.79668.7966-.79668.4382 0 .7967.35851.7967.79668z" fill="#fff"/></svg>

<svg width="20" height="17" viewBox="0 0 20 17" fill="none" xmlns="http://www.w3.org/2000/svg">
<path d="M18.949 5.67388C19.2916 5.57827 19.5226 5.2596 19.5226 4.90907V3.71405C19.5226 1.9534 18.0965 0.527344 16.3359 0.527344H3.58905C1.8284 0.527344 0.402344 1.9534 0.402344 3.71405V4.90907C0.402344 5.2596 0.63338 5.57031 0.967984 5.67388C1.07155 5.70574 1.9957 6.01645 1.9957 6.90076C1.9957 7.78507 1.07952 8.09577 0.975951 8.12764C0.63338 8.22324 0.402344 8.54191 0.402344 8.89245V14.0708C0.402344 15.3854 1.47786 16.4609 2.79237 16.4609H17.1326C18.4471 16.4609 19.5226 15.3854 19.5226 14.0708V8.89245C19.5226 8.54191 19.2916 8.23121 18.9569 8.12764C18.8534 8.09577 17.9292 7.78507 17.9292 6.90076C17.9292 6.01645 18.8454 5.70574 18.949 5.67388ZM1.9957 14.0708V13.2742H4.38573V14.8675H2.79237C2.3542 14.8675 1.9957 14.509 1.9957 14.0708ZM13.9458 14.8675H12.3525V13.2742H13.9458V14.8675ZM10.7591 14.8675H9.16579V13.2742H10.7591V14.8675ZM7.57243 14.8675H5.97908V13.2742H7.57243V14.8675ZM17.1326 14.8675H15.5392V13.2742H17.9292V14.0708C17.9292 14.509 17.5707 14.8675 17.1326 14.8675ZM17.9292 4.38326C17.1963 4.7816 16.3359 5.58624 16.3359 6.90076C16.3359 8.21527 17.1963 9.01992 17.9292 9.41826V11.6808H1.9957V9.41826C2.72864 9.01992 3.58905 8.21527 3.58905 6.90076C3.58905 5.58624 2.72864 4.7816 1.9957 4.38326V3.71405C1.9957 2.83771 2.71271 2.1207 3.58905 2.1207H16.3359C17.2122 2.1207 17.9292 2.83771 17.9292 3.71405V4.38326ZM10.7591 4.51073V9.29079C10.7591 9.72896 10.4006 10.0875 9.96247 10.0875C9.52429 10.0875 9.16579 9.72896 9.16579 9.29079V4.51073C9.16579 4.07256 9.52429 3.71405 9.96247 3.71405C10.4006 3.71405 10.7591 4.07256 10.7591 4.51073ZM6.77576 4.51073V9.29079C6.77576 9.72896 6.41725 10.0875 5.97908 10.0875C5.54091 10.0875 5.1824 9.72896 5.1824 9.29079V4.51073C5.1824 4.07256 5.54091 3.71405 5.97908 3.71405C6.41725 3.71405 6.77576 4.07256 6.77576 4.51073ZM14.7425 4.51073V9.29079C14.7425 9.72896 14.384 10.0875 13.9458 10.0875C13.5077 10.0875 13.1492 9.72896 13.1492 9.29079V4.51073C13.1492 4.07256 13.5077 3.71405 13.9458 3.71405C14.384 3.71405 14.7425 4.07256 14.7425 4.51073Z" fill="white"/>
</svg>
